!!!COM:	van Weerbeke, Gaspar
!!!CDT:	~1445//-~1517//
!!!OPR:	Quam pulchra es Cycle
!!!OTL:	Ave regina caelorum mater
!!!AGN:	Motet
!!!SMS:	Librone I
!!!SCT:	Gas2017e
!!!SCA:	Gas2017e
!!!voices-OPR: 4
!!!voices:	4
**kern	**text	**kern	**text	**kern	**text	**kern	**text
*staff4	*staff4	*staff3	*staff3	*staff2	*staff2	*staff1	*staff1
*Ivox	*	*Ivox	*	*Ivox	*	*Ivox	*
*I"Bassus	*	*I"Tenor	*	*I"Altus	*	*I"Superius	*
*I'B	*	*I'T	*	*I'A	*	*I'S	*
*>[A,B,C]	*>[A,B,C]	*>[A,B,C]	*>[A,B,C]	*>[A,B,C]	*>[A,B,C]	*>[A,B,C]	*>[A,B,C]
*>A	*>A	*>A	*>A	*>A	*>A	*>A	*>A
*clefF4	*	*clefGv2	*	*clefGv2	*	*clefG2	*
*k[b-]	*	*k[b-]	*	*k[b-]	*	*k[b-]	*
*M2/1	*	*M2/1	*	*M2/1	*	*M2/1	*
*met(C)	*	*met(C)	*	*met(C)	*	*met(C)	*
=1-	=1-	=1-	=1-	=1-	=1-	=1-	=1-
0D	A-	0r	.	0r	.	0r	.
=2	=2	=2	=2	=2	=2	=2	=2
1E	-ve	0r	.	0r	.	0r	.
1F	re-	.	.	.	.	.	.
=3	=3	=3	=3	=3	=3	=3	=3
2.G\	-gi-	0r	.	0d	A-	0r	.
4A\	.	.	.	.	.	.	.
2B-\	.	.	.	.	.	.	.
2G\	.	.	.	.	.	.	.
=4	=4	=4	=4	=4	=4	=4	=4
2.c\	.	0r	.	1e	-ve	0r	.
4B-\	.	.	.	.	.	.	.
1A	.	.	.	1f	re-	.	.
=5	=5	=5	=5	=5	=5	=5	=5
2G\	.	0G	A-	2.g\	-gi-	0r	.
2.B-\	.	.	.	.	.	.	.
.	.	.	.	4f\	.	.	.
.	.	.	.	1d	.	.	.
4G\	.	.	.	.	.	.	.
2B-\	.	.	.	.	.	.	.
=6	=6	=6	=6	=6	=6	=6	=6
2c\	.	1A	-ve	1c	-na,	0r	.
2A\	.	.	.	.	.	.	.
1G	-na,	1B-	re-	2r	.	.	.
.	.	.	.	2d\	re-	.	.
=7	=7	=7	=7	=7	=7	=7	=7
1r	.	2.c\	-gi-	2.e\	-gi-	0g	A-
.	.	4d\	.	4d\	.	.	.
1A	a-	2e\	.	[1c	.	.	.
.	.	2c\	.	.	.	.	.
=8	=8	=8	=8	=8	=8	=8	=8
1F	-ve	2.f\	.	1c]	.	1a	-ve
.	.	4e\	.	.	.	.	.
1G	re-	1d	.	1g	.	1b-	re-
=9	=9	=9	=9	=9	=9	=9	=9
1A	-gi-	1c	-na	2e\	-na	1cc	-gi-
.	.	.	.	1.a	cel-	.	.
2A\	-na	1c	cel-	.	.	1ee	-na
2A\	cel-	.	.	.	.	.	.
=10	=10	=10	=10	=10	=10	=10	=10
2B-\	-lo-	2d\	-lo-	2f\	-lo-	2dd\	ce-
2c\	.	2f\	.	2d\	.	1dd	-lo-
1A	.	1e	.	1a	.	.	.
.	.	.	.	.	.	2cc#i\	-rum,
=11	=11	=11	=11	=11	=11	=11	=11
0D	-rum,	0d	-rum,	0f	-rum,	1.dd	Ma-
.	.	.	.	.	.	4cc\	.
.	.	.	.	.	.	4b-\	.
=12	=12	=12	=12	=12	=12	=12	=12
1F	Ma-	1c	Ma-	1f	Ma-	1a	.
2G\	.	2B-\	.	2e\	.	2b-\	.
2F\	.	2c\	.	[2f\	.	[2a/	.
=13	=13	=13	=13	=13	=13	=13	=13
2D\	.	2d\	.	2f\]	.	2a/]	.
2G\	.	2B-\	.	1.d	.	1g	.
1D	-ter,	1A	.	.	.	.	.
.	.	.	.	.	.	2f#i/	.
=14	=14	=14	=14	=14	=14	=14	=14
2r	.	0G	-ter,	1d	-ter,	1g	-ter,
1d	ma-	.	.	.	.	.	.
.	.	.	.	2r	.	1g	ma-
4c\	.	.	.	[2g\	ma-	.	.
4B-\	.	.	.	.	.	.	.
=15	=15	=15	=15	=15	=15	=15	=15
1A	-ter	1r	.	2g\]	.	1a	-ter
.	.	.	.	2f\	-ter	.	.
1G	re-	1G	ma-	2g\	re-	1b-	re-
.	.	.	.	2b-\	.	.	.
=16	=16	=16	=16	=16	=16	=16	=16
1F	-gis	1A	-ter	1a	-gis	1cc	-gis
2G\	an-	1B-	re-	1g	an-	2r	.
2B-\	-ge-	.	.	.	.	2dd\	an-
=17	=17	=17	=17	=17	=17	=17	=17
1A	-lo-	1c	-gis	1a	-ge-	2cc\	.
.	.	.	.	.	.	2ee\	.
1D	-rum,	2r	.	1f	.	2dd\	.
.	.	2d\	an-	.	.	2ff\	.
=18	=18	=18	=18	=18	=18	=18	=18
2r	.	2c\	.	2g\	-lo-	2ee\	.
1d	O	1f	-ge-	2.a\	.	1dd	-ge-
.	.	.	.	4b-\	.	.	.
[2c\	.	[2g\	-lo-	[2cc\	.	[2ee\	-lo-
=19	=19	=19	=19	=19	=19	=19	=19
1c]	.	2g\]	.	2cc\]	.	4ee\]	.
.	.	.	.	.	.	4dd\	.
.	.	2e\	.	1.g	.	1cc	.
1G	Ma-	1d	.	.	.	.	.
.	.	.	.	.	.	2bni\	.
=20	=20	=20	=20	=20	=20	=20	=20
2A\	.	1c	-rum,	2e\	-rum,	1cc	-rum,
2.F\	-ri-	.	.	2f\	O	.	.
.	.	1r	.	2d\	Ma-	1ff	O
4E\	.	.	.	.	.	.	.
2D\	.	.	.	2B-\	.	.	.
=21	=21	=21	=21	=21	=21	=21	=21
1C	-a,	1r	.	1c	-ri-	1ee	.
1D	O	1f	O	2A/	.	2dd\	.
.	.	.	.	[2a\	.	[2dd\	Ma-
=22	=22	=22	=22	=22	=22	=22	=22
1A	.	1e	.	1a]	.	2dd\]	.
.	.	.	.	.	.	2cc#i\	.
1D	Ma-	2d\	.	2.f\	.	1dd	-ri-
.	.	[2d\	Ma-	.	.	.	.
.	.	.	.	4d\	.	.	.
=23	=23	=23	=23	=23	=23	=23	=23
2G\	-ri-	2d\]	.	2g\	.	2b-\	.
2A\	.	2c\	.	2f\	.	2a/	.
1G	.	2.d\	-ri-	2.g\	.	1b-	.
.	.	4c\	.	4f\	.	.	.
=24	=24	=24	=24	=24	=24	=24	=24
2F\	.	2A/	.	2d\	.	2f/	.
2E\	.	2G/	.	2c\	.	1g	.
1D	-a,	1A	.	1d	-a,	.	.
.	.	.	.	.	.	2f#i/	.
=25	=25	=25	=25	=25	=25	=25	=25
2r	.	0G	-a,	2r	.	0g	-a,
2G\	flos	.	.	2d\	flos	.	.
2E\	vir-	.	.	2e\	vir-	.	.
2E\	-gi-	.	.	2e\	-gi-	.	.
=26	=26	=26	=26	=26	=26	=26	=26
1D	-num,	0r	.	1f	-num,	1dd	flos
2G\	flos	.	.	2g\	flos	2dd\	vir-
2G\	.	.	.	2c\	.	2cc\	-gi-
=27	=27	=27	=27	=27	=27	=27	=27
1G	vir-	1d	flos	1g	vir-	1b-	-num,
2D\	-gi-	2d\	vir-	1f	-gi-	1a	.
2F\	.	2c\	-gi-	.	.	.	.
=28	=28	=28	=28	=28	=28	=28	=28
1G	-num,	1B-	-num,	0d	-num,	0r	.
1D	.	1A	.	.	.	.	.
=29	=29	=29	=29	=29	=29	=29	=29
1.G	Vel-	0r	.	2.B-\	Vel-	1b-	Vel-
.	.	.	.	4c\	.	.	.
.	.	.	.	1d	-ut	2b-\	-ut
2D\	-ut	.	.	.	.	2a/	.
=30	=30	=30	=30	=30	=30	=30	=30
1E-	ro-	1B-	Vel-	1.r	.	1g	ro-
2D\	.	2B-\	-ut	.	.	1f	-sa
2F\	.	2A/	.	[2d\	ro-	.	.
=31	=31	=31	=31	=31	=31	=31	=31
1E-i	.	1G	ro-	2d\]	.	0r	.
.	.	.	.	2c\	.	.	.
1D	-sa	1F	-sa.	1d	-sa	.	.
=32	=32	=32	=32	=32	=32	=32	=32
0r	.	0r	.	2.e-\	vel-	1g	vel-
.	.	.	.	4d\	.	.	.
.	.	.	.	2c\	-li-	2g/	-li-
.	.	.	.	2d\	.	2f/	.
=33	=33	=33	=33	=33	=33	=33	=33
1G	vel	0r	.	1.B-	.	1e-	.
2G\	li-	.	.	.	.	2d/	.
2F\	.	.	.	[2A/	.	[2d/	.
=34	=34	=34	=34	=34	=34	=34	=34
1E-i	-li-	0r	.	2A/]	.	2d/]	.
.	.	.	.	2G/	-li-	2c/	-li-
2D\	-um.	.	.	2A/	-um.	1d	-um.
[2G\	Fun-	.	.	[2B-\	Fun-	.	.
=35	=35	=35	=35	=35	=35	=35	=35
2G\]	.	0r	.	4B-\]	.	0r	.
.	.	.	.	4A/	.	.	.
2F\	.	.	.	1d	.	.	.
1E-i	-de	.	.	.	.	.	.
.	.	.	.	2c\	-de	.	.
=36	=36	=36	=36	=36	=36	=36	=36
2.D\	pre-	0r	.	1.d	pre-	0r	.
4Eni\	.	.	.	.	.	.	.
2F\	.	.	.	.	.	.	.
2G\	.	.	.	2e\	.	.	.
=37	=37	=37	=37	=37	=37	=37	=37
2A\	.	0r	.	1f	.	0r	.
1B-	.	.	.	.	.	.	.
.	.	.	.	2g\	.	.	.
2c\	.	.	.	[2a\	.	.	.
=38	=38	=38	=38	=38	=38	=38	=38
2d\	.	1r	.	2a\]	.	0r	.
2B-\	.	.	.	1g	.	.	.
1A	.	1c	Fun-	.	.	.	.
.	.	.	.	2f#i\	.	.	.
=39	=39	=39	=39	=39	=39	=39	=39
0G	-ces	2B-\	-de	0g	-ces	0r	.
.	.	1d	pre-	.	.	.	.
.	.	4c\	.	.	.	.	.
.	.	4B-\	.	.	.	.	.
=40	=40	=40	=40	=40	=40	=40	=40
0r	.	1A	.	0r	.	1cc	Fun-
.	.	1G	-ces	.	.	2b-\	-de
.	.	.	.	.	.	[2dd\	pre-
=41	=41	=41	=41	=41	=41	=41	=41
0r	.	2r	.	0r	.	2dd\]	.
.	.	2.d\	ad	.	.	4cc\	.
.	.	.	.	.	.	4b-\	.
.	.	.	.	.	.	1a	.
.	.	4e\	.	.	.	.	.
.	.	2f\	.	.	.	.	.
=42	=42	=42	=42	=42	=42	=42	=42
0r	.	2g\	fi-	0r	.	1g	-ces
.	.	2e\	.	.	.	.	.
.	.	2f\	.	.	.	2.dd\	ad
.	.	[2d\	.	.	.	.	.
.	.	.	.	.	.	4ee\	.
=43	=43	=43	=43	=43	=43	=43	=43
0r	.	2d\]	.	0r	.	2ff\	.
.	.	2e\	.	.	.	2gg\	fi-
.	.	2c\	.	.	.	2ee\	.
.	.	[2d\	.	.	.	2ff\	.
=44	=44	=44	=44	=44	=44	=44	=44
0r	.	2d\]	.	0r	.	1dd	.
.	.	4c\	.	.	.	.	.
.	.	4B-\	.	.	.	.	.
.	.	1A	.	.	.	2ee\	.
.	.	.	.	.	.	2cc\	.
=45	=45	=45	=45	=45	=45	=45	=45
0r	.	2.B-\	.	0r	.	2.dd\	.
.	.	4c\	.	.	.	4cc\	.
.	.	4d\	.	.	.	2b-\	.
.	.	4e\	.	.	.	.	.
.	.	[2f\	.	.	.	[2a/	.
=46	=46	=46	=46	=46	=46	=46	=46
0r	.	2f\]	.	0r	.	2a/]	.
.	.	2d\	.	.	.	1dd	.
.	.	1e	-li-	.	.	.	.
.	.	.	.	.	.	2cc#i\	-li-
=47	=47	=47	=47	=47	=47	=47	=47
0r	.	1d	-um	1f	Pro	1dd	-um
.	.	1r	.	2g\	sa-	1r	.
.	.	.	.	[2b-\	-lu-	.	.
=48	=48	=48	=48	=48	=48	=48	=48
1r	.	0r	.	2b-\]	.	0r	.
.	.	.	.	4a\	.	.	.
.	.	.	.	4g\	.	.	.
1F	Pro	.	.	1a	.	.	.
=49	=49	=49	=49	=49	=49	=49	=49
2G\	sa-	0r	.	2b-\	.	0r	.
1B-	-lu-	.	.	1f	.	.	.
4A\	.	.	.	4e\	.	.	.
4G\	.	.	.	4d\	.	.	.
=50	=50	=50	=50	=50	=50	=50	=50
1A	-te	0r	.	1c	-te	0r	.
1B-	fi-	.	.	2.B-\	fi-	.	.
.	.	.	.	4c\	.	.	.
=51	=51	=51	=51	=51	=51	=51	=51
2.B-\	-de-	0r	.	4d\	.	0r	.
.	.	.	.	4e\	.	.	.
.	.	.	.	1f	-de-	.	.
4c\	.	.	.	.	.	.	.
2d\	.	.	.	.	.	.	.
[2c\	.	.	.	[2g\	.	.	.
=52	=52	=52	=52	=52	=52	=52	=52
2c\]	.	0r	.	2g\]	.	0r	.
2A\	.	.	.	1f	.	.	.
1G	.	.	.	.	.	.	.
.	.	.	.	2e\	-li-	.	.
=53	=53	=53	=53	=53	=53	=53	=53
1F	-li-	0r	.	1f	-um,	1a	Pro
1G	.	.	.	1r	.	2b-\	sa-
.	.	.	.	.	.	[2dd\	-lu-
=54	=54	=54	=54	=54	=54	=54	=54
1D	-um,	1r	.	0r	.	2dd\]	.
.	.	.	.	.	.	4cc\	.
.	.	.	.	.	.	4b-\	.
1r	.	1A	Pro	.	.	1cc	-te
=55	=55	=55	=55	=55	=55	=55	=55
0r	.	2B-\	sa-	0r	.	2dd\	fi-
.	.	1d	-lu-	.	.	1ff	-de-
.	.	4c\	.	.	.	4ee\	.
.	.	4B-\	.	.	.	4dd\	.
=56	=56	=56	=56	=56	=56	=56	=56
0r	.	1c	-te	0r	.	1ee	.
.	.	2d\	fi-	.	.	[1dd	.
.	.	[2f\	-de-	.	.	.	.
=57	=57	=57	=57	=57	=57	=57	=57
1r	.	2f\]	.	0r	.	2dd\]	.
.	.	4e\	.	.	.	4cc\	.
.	.	4d\	.	.	.	4b-\	.
1C	fi-	1e	-li-	.	.	4cc\	.
.	.	.	.	.	.	4b-\	.
.	.	.	.	.	.	4a/	.
.	.	.	.	.	.	4g/	.
=58	=58	=58	=58	=58	=58	=58	=58
2.D\	-de-	0d	-um,	2.d\	fi-	2.f/	.
4E\	.	.	.	4c\	.	4g/	.
2F\	.	.	.	2A/	.	2a/	.
2G\	.	.	.	2G/	.	2b-\	.
=59	=59	=59	=59	=59	=59	=59	=59
1A	.	1c	fi-	1a	-de-	2a/	.
.	.	.	.	.	.	2cc\	.
2B-\	.	2d\	-de-	2g\	.	2b-\	.
[2F\	.	2c\	.	[2f\	.	[2a/	.
=60	=60	=60	=60	=60	=60	=60	=60
2F\]	.	2d\	.	2f\]	.	2a/]	.
2G\	.	2B-\	.	1.d	-li-	1g	.
1D	-li-	1A	-li-	.	.	.	.
.	.	.	.	.	.	2f#i/	-li-
=61	=61	=61	=61	=61	=61	=61	=61
0Gl	-um.	0Gl	-um.	0dl	-um.	0gl	-um.
!!LO:LB:i:g=z
=62||	=62||	=62||	=62||	=62||	=62||	=62||	=62||
*>B	*>B	*>B	*>B	*>B	*>B	*>B	*>B
*clefF4	*	*clefGv2	*	*clefGv2	*	*clefG2	*
*k[b-]	*	*k[b-]	*	*k[b-]	*	*k[b-]	*
*M2/1	*	*M2/1	*	*M2/1	*	*M2/1	*
*met(C)	*	*met(C)	*	*met(C)	*	*met(C)	*
!!section: Ave corpus
!!!OMD: Ave corpus
0D;	A-	0d;	A-	0f;	A-	0a;	A-
=63	=63	=63	=63	=63	=63	=63	=63
0F;	-ve	0c;	-ve	0f;	-ve	0a;	-ve
=64	=64	=64	=64	=64	=64	=64	=64
0G;	cor-	0B-;	cor-	0d;	cor-	0g;	cor-
=65	=65	=65	=65	=65	=65	=65	=65
0D;	-pus	0A;	-pus	0d;	-pus	0f;	-pus
=66	=66	=66	=66	=66	=66	=66	=66
[0G;	do-	[0B-;	.	[0d;	do-	[0b-;	do-
=67	=67	=67	=67	=67	=67	=67	=67
1G]	.	1B-]	.	1d]	.	1b-]	.
1G	-mi-	1B-	.	1e	-mi-	1b-	-mi-
=68	=68	=68	=68	=68	=68	=68	=68
0F;l	-ni,	0c;l	.	0f;l	-ni,	0a;l	-ni,
!!LO:LB:i:g=z
=69||	=69||	=69||	=69||	=69||	=69||	=69||	=69||
*>C	*>C	*>C	*>C	*>C	*>C	*>C	*>C
*clefF4	*	*clefGv2	*	*clefGv2	*	*clefG2	*
*k[b-]	*	*k[b-]	*	*k[b-]	*	*k[b-]	*
*M2/1	*	*M2/1	*	*M2/1	*	*M2/1	*
*met(C)	*	*met(C)	*	*met(C)	*	*met(C)	*
!!section: Munus et finale
!!!OMD: Munus et finale
1D	Mu-	1d	Mu-	1f	Mu-	1a	Mu-
1D	-nus	1d	-nus	1f	-nus	1a	-nus
=70	=70	=70	=70	=70	=70	=70	=70
1G	et	1d	et	1g	et	1b-	et
2A\	fi-	2c\	fi-	2f\	fi-	2a/	fi-
[2G\	-na-	[2d\	-na	2g\	.	[2b-\	-na-
=71	=71	=71	=71	=71	=71	=71	=71
1G]	.	2d\]	.	2d\	-na-	2b-\]	.
.	.	2B-\	.	2e\	.	1g	.
1D	.	1A	.	1d	.	.	.
.	.	.	.	.	.	2f#i/	.
=72	=72	=72	=72	=72	=72	=72	=72
1E-	.	0G	le,	0B-	-le,	0g	-le,
1E-i	-le,	.	.	.	.	.	.
=73	=73	=73	=73	=73	=73	=73	=73
1D	Cor-	1F	Cor-	1d	Cor-	1a	Cor-
1F	-pus	1F	-pus	1d	-pus	1a	-pus
=74	=74	=74	=74	=74	=74	=74	=74
1E-i	iunc-	1G	iunc-	1c	iunc-	1g	iunc-
1D	-tum	1A	-tum	1d	-tum	1f	-tum
=75	=75	=75	=75	=75	=75	=75	=75
1E-i	ho-	1G	ho-	2B-\	ho-	1g	ho-
.	.	.	.	1G	.	.	.
1C	-mi-	1A	-mi-	.	.	1e	-mi-
.	.	.	.	2E/	-mi-	.	.
=76	=76	=76	=76	=76	=76	=76	=76
0BB-	-ni	0B-	-ni	0F	-ni	0d	-ni
=77	=77	=77	=77	=77	=77	=77	=77
1E-	In	1c	In	1G	In	1g	In
1E-i	me-	1c	me-	1G	me-	1g	me-
=78	=78	=78	=78	=78	=78	=78	=78
1D	-mor-	1d	-mo-	1A	-mo-	1f	-mo-
2D\	-ri-	2f\	-ri-	2A/	-ri-	2a/	-ri-
[2G\	-a-	[2e-\	-a-	[2B-\	-a-	[2g/	-a-
=79	=79	=79	=79	=79	=79	=79	=79
2G\]	.	2e-\]	.	2B-\]	.	2g/]	.
2D\	.	1d	.	1A	.	2f/	.
1E-i	.	.	.	.	.	1g	.
.	.	2c\	.	2G/	.	.	.
=80	=80	=80	=80	=80	=80	=80	=80
0D	-le,	0d	-le,	1A	-le,	0f	-le,
.	.	.	.	1a	Cum	.	.
=81	=81	=81	=81	=81	=81	=81	=81
1G	Cum	1d	Cum	1g	.	1b-	Cum
1A	fi-	1c	fi-	1f	fi-	1a	fi-
=82	=82	=82	=82	=82	=82	=82	=82
1G	-na-	1d	-na-	1g	-na-	1b-	-na-
1F	-lis	1f	-lis	1c	-lis	2a/	-lis
.	.	.	.	.	.	[2cc\	ter-
=83	=83	=83	=83	=83	=83	=83	=83
2B-\	ter-	2d\	ter-	2d\	ter-	2cc\]	.
2G\	.	2B-\	.	2e\	.	1b-	.
1F	-mi-	1c	-mi-	1f	-mi-	.	.
.	.	.	.	.	.	2a/	-mi-
=84	=84	=84	=84	=84	=84	=84	=84
0G	-ni	0B-	-ni	0d	-ni	1b-	-ni
.	.	.	.	.	.	1r	.
=85	=85	=85	=85	=85	=85	=85	=85
1D	Mun-	1d	Mun-	1f	Mun-	1a	Mun-
2G\	-do	2B-\	-do	2e\	-do	2b-\	-do
[2F\	di-	[2c\	di-	[2f\	di-	[2a/	di-
=86	=86	=86	=86	=86	=86	=86	=86
2F\]	.	2c\]	.	2f\]	.	2a/]	.
2G\	.	2B-\	.	2d\	.	1g	.
1D	.	1A	.	1d	.	.	.
.	.	.	.	.	.	2f#i/	.
=87	=87	=87	=87	=87	=87	=87	=87
1G	-xit	1G	-xit	1d	-xit	1g	-xit
1r	.	1r	.	1r	.	1r	.
=88	=88	=88	=88	=88	=88	=88	=88
[0G	va-	[0B-	va-	0d	va-	[0g	va-
=89	=89	=89	=89	=89	=89	=89	=89
1G]	.	1B-]	.	1e-	.	1g]	.
1D	.	1A	.	1d	.	1f	.
=90	=90	=90	=90	=90	=90	=90	=90
0Dl	-le.	0Al	-le.	0dl	-le.	0fl	-le.
==	==	==	==	==	==	==	==
*-	*-	*-	*-	*-	*-	*-	*-
!!!RDF**kern: l=long note in original notation
!!!RDF**kern: i=editorial accidental
!!!RDF**kern: V=start of tuplet marker
!!!RDF**kern: Z=end of tuplet marker
!!!ENC:	Clare Bokulich
!!!END:	2016/03/29/
!!!EED:	Jesse Rodin
!!!EEV:	2016/03/30/
!!!ONB:	Translated from MusicXML and edited on 2016/03/30/ by Craig Sapp
!!muse2ps: C^@{COM}\nSource: @{SMS}^i2I150v85,85,85,150Q16
!!muse2ps: T^@{OPR}^u^5. @{OTL}^
